svg/Mapbox-maki/laundry-24.svg

<?xml version="1.0" encoding="UTF-8" standalone="no"?>
<!-- Generator: Adobe Illustrator 15.1.0, SVG Export Plug-In . SVG Version: 6.00 Build 0)  -->

<svg
   xmlns:dc="http://purl.org/dc/elements/1.1/"
   xmlns:cc="http://creativecommons.org/ns#"
   xmlns:rdf="http://www.w3.org/1999/02/22-rdf-syntax-ns#"
   xmlns:svg="http://www.w3.org/2000/svg"
   xmlns="http://www.w3.org/2000/svg"
   xmlns:sodipodi="http://sodipodi.sourceforge.net/DTD/sodipodi-0.dtd"
   xmlns:inkscape="http://www.inkscape.org/namespaces/inkscape"
   version="1.1"
   id="svg4460"
   sodipodi:docname="laundry-24.svg"
   inkscape:version="0.48.2 r9819"
   x="0px"
   y="0px"
   width="24px"
   height="24px"
   viewBox="-402.5 403.5 24 24"
   enable-background="new -402.5 403.5 24 24"
   xml:space="preserve"><metadata
   id="metadata3299"><rdf:RDF><cc:Work
       rdf:about=""><dc:format>image/svg+xml</dc:format><dc:type
         rdf:resource="http://purl.org/dc/dcmitype/StillImage" /></cc:Work></rdf:RDF></metadata><defs
   id="defs3297" />
<sodipodi:namedview
   id="base"
   inkscape:pageopacity="0.0"
   borderopacity="1.0"
   inkscape:cx="7.7855275"
   inkscape:pageshadow="2"
   inkscape:zoom="15.999999"
   inkscape:document-units="px"
   inkscape:current-layer="svg4460"
   inkscape:guide-bbox="true"
   showguides="true"
   inkscape:window-width="1220"
   showgrid="true"
   inkscape:window-height="833"
   inkscape:window-x="326"
   inkscape:cy="11.669214"
   inkscape:window-y="165"
   inkscape:window-maximized="0"
   pagecolor="#ffffff"
   bordercolor="#666666">
	<inkscape:grid
   type="xygrid"
   id="grid4468"
   enabled="true"
   empspacing="2"
   visible="true"
   snapvisiblegridlinesonly="true"
   spacingx="0.5px"
   spacingy="0.5px">
		</inkscape:grid>
	<sodipodi:guide
   id="guide4470"
   position="0,20"
   orientation="1,0" />
	<sodipodi:guide
   id="guide4472"
   position="4,24"
   orientation="0,1" />
	<sodipodi:guide
   id="guide4474"
   position="24,13"
   orientation="1,0" />
	<sodipodi:guide
   id="guide4476"
   position="15,0"
   orientation="0,1" />
	<sodipodi:guide
   id="guide4478"
   position="23,20"
   orientation="1,0" />
	<sodipodi:guide
   id="guide4480"
   position="20,23"
   orientation="0,1" />
	<sodipodi:guide
   id="guide4482"
   position="2,5"
   orientation="1,0" />
	<sodipodi:guide
   id="guide4484"
   position="7,2"
   orientation="0,1" />
	<sodipodi:guide
   id="guide4486"
   position="12.5,1"
   orientation="1,0" />
	<sodipodi:guide
   id="guide4490"
   position="16,13"
   orientation="0,1" />
<sodipodi:guide
   orientation="0,1"
   position="18,10.5"
   id="guide3307" /></sodipodi:namedview>
<g
   id="layer1"
   transform="translate(0,-1028.3622)"
   inkscape:groupmode="layer"
   inkscape:label="Layer 1">
</g>
<g
   id="laundry">
	
	<g
   id="g3289">
		<path
   sodipodi:nodetypes="sssssssssssssssssssssssssssscssscc"
   inkscape:connector-curvature="0"
   id="path4161"
   transform="translate(-402.5,403.5)"
   d="M 12.5,3 C 12.01621,3 11.35355,3.64645 11,4 L 10,5 C 9.64645,5.35355 9,6 8.5,6 L 6,6 C 5.5,6 5,6.5 5,7 l 0,13 c 0,0.553 0.448,1 1,1 l 13,0 c 0.552,0 1,-0.447 1,-1 L 20,4 C 20,3.447 19.552,3 19,3 z M 14,4 c 0.55228,0 1,0.44772 1,1 0,0.55228 -0.44772,1 -1,1 -0.55228,0 -1,-0.44772 -1,-1 0,-0.55228 0.44772,-1 1,-1 z m 3,0 c 0.55228,0 1,0.44772 1,1 0,0.55228 -0.44772,1 -1,1 C 16.44772,6 16,5.55228 16,5 16,4.44772 16.44772,4 17,4 z M 12.5,9 C 14.98528,9 17,11.01472 17,13.5 17,15.98528 14.98528,18 12.5,18 10.01472,18 8,15.98528 8,13.5 8,11.01472 10.01472,9 12.5,9 z m -2.5,4 0,0.5 c 0,1.38071 1.119289,2.5 2.5,2.5 1.380711,0 2.5,-1.11929 2.5,-2.5 L 15,13 z"
   style="opacity:0.3;fill:none;stroke:#ffffff;stroke-width:2;stroke-miterlimit:4;stroke-dasharray:none" /><path
   style="fill:#454545"
   d="M 12.5,3 C 12.01621,3 11.35355,3.64645 11,4 L 10,5 C 9.64645,5.35355 9,6 8.5,6 L 6,6 C 5.5,6 5,6.5 5,7 l 0,13 c 0,0.553 0.448,1 1,1 l 13,0 c 0.552,0 1,-0.447 1,-1 L 20,4 C 20,3.447 19.552,3 19,3 z M 14,4 c 0.55228,0 1,0.44772 1,1 0,0.55228 -0.44772,1 -1,1 -0.55228,0 -1,-0.44772 -1,-1 0,-0.55228 0.44772,-1 1,-1 z m 3,0 c 0.55228,0 1,0.44772 1,1 0,0.55228 -0.44772,1 -1,1 C 16.44772,6 16,5.55228 16,5 16,4.44772 16.44772,4 17,4 z M 12.5,9 C 14.98528,9 17,11.01472 17,13.5 17,15.98528 14.98528,18 12.5,18 10.01472,18 8,15.98528 8,13.5 8,11.01472 10.01472,9 12.5,9 z m -2.5,4 0,0.5 c 0,1.38071 1.119289,2.5 2.5,2.5 1.380711,0 2.5,-1.11929 2.5,-2.5 L 15,13 z"
   transform="translate(-402.5,403.5)"
   id="path3291"
   inkscape:connector-curvature="0"
   sodipodi:nodetypes="sssssssssssssssssssssssssssscssscc" />
		
		
	</g>
</g>
</svg>

<svg xmlns="http://www.w3.org/2000/svg" viewBox="-402.5 403.5 24 24" enable-background="new -402.5 403.5 24 24"><g transform="translate(-402.5 403.5)"><path d="m12.5 3c-.484 0-1.146.646-1.5 1l-1 1c-.354.354-1 1-1.5 1h-2.5c-.5 0-1 .5-1 1v13c0 .553.448 1 1 1h13c.552 0 1-.447 1-1v-16c0-.553-.448-1-1-1zm1.5 1c.552 0 1 .448 1 1 0 .552-.448 1-1 1-.552 0-1-.448-1-1 0-.552.448-1 1-1zm3 0c.552 0 1 .448 1 1 0 .552-.448 1-1 1-.552 0-1-.448-1-1 0-.552.448-1 1-1zm-4.5 5c2.485 0 4.5 2.01 4.5 4.5 0 2.485-2.01 4.5-4.5 4.5-2.485 0-4.5-2.01-4.5-4.5 0-2.485 2.01-4.5 4.5-4.5zm-2.5 4v.5c0 1.381 1.119 2.5 2.5 2.5 1.381 0 2.5-1.119 2.5-2.5v-.5z" opacity=".3" fill="none" stroke="#fff" stroke-width="2"/><path d="m12.5 3c-.484 0-1.146.646-1.5 1l-1 1c-.354.354-1 1-1.5 1h-2.5c-.5 0-1 .5-1 1v13c0 .553.448 1 1 1h13c.552 0 1-.447 1-1v-16c0-.553-.448-1-1-1zm1.5 1c.552 0 1 .448 1 1 0 .552-.448 1-1 1-.552 0-1-.448-1-1 0-.552.448-1 1-1m3 0c.552 0 1 .448 1 1 0 .552-.448 1-1 1-.552 0-1-.448-1-1 0-.552.448-1 1-1m-4.5 5c2.485 0 4.5 2.01 4.5 4.5 0 2.485-2.01 4.5-4.5 4.5-2.485 0-4.5-2.01-4.5-4.5 0-2.485 2.01-4.5 4.5-4.5m-2.5 4v.5c0 1.381 1.119 2.5 2.5 2.5 1.381 0 2.5-1.119 2.5-2.5v-.5z" fill="#454545"/></g></svg>
